elementary-icon-theme/elementary/apps/32/ooo-base.svg

<?xml version="1.0" encoding="UTF-8" standalone="no"?>
<!-- Created with Inkscape (http://www.inkscape.org/) -->

<svg
   xmlns:dc="http://purl.org/dc/elements/1.1/"
   xmlns:cc="http://creativecommons.org/ns#"
   xmlns:rdf="http://www.w3.org/1999/02/22-rdf-syntax-ns#"
   xmlns:svg="http://www.w3.org/2000/svg"
   xmlns="http://www.w3.org/2000/svg"
   xmlns:xlink="http://www.w3.org/1999/xlink"
   xmlns:sodipodi="http://sodipodi.sourceforge.net/DTD/sodipodi-0.dtd"
   xmlns:inkscape="http://www.inkscape.org/namespaces/inkscape"
   width="32px"
   height="32px"
   id="svg3234"
   version="1.1"
   inkscape:version="0.48.0 r9654"
   sodipodi:docname="ooo-base.svg">
  <defs
     id="defs3236">
    <linearGradient
       inkscape:collect="always"
       xlink:href="#linearGradient3844"
       id="linearGradient3136"
       gradientUnits="userSpaceOnUse"
       gradientTransform="matrix(0.4581255,0,0,0.4388939,-31.619713,14.933095)"
       spreadMethod="reflect"
       x1="102.30806"
       y1="-2.3925467"
       x2="102.30806"
       y2="-24.582239" />
    <linearGradient
       id="linearGradient3844">
      <stop
         id="stop3846"
         style="stop-color:#a5a6a8;stop-opacity:1"
         offset="0" />
      <stop
         id="stop3848"
         style="stop-color:#e8e8e8;stop-opacity:1"
         offset="1" />
    </linearGradient>
    <linearGradient
       inkscape:collect="always"
       xlink:href="#linearGradient2509"
       id="linearGradient3138"
       gradientUnits="userSpaceOnUse"
       gradientTransform="matrix(0.4581255,0,0,0.4388939,-31.619713,14.933095)"
       x1="109.95628"
       y1="-24.91135"
       x2="109.95628"
       y2="-2.3757858" />
    <linearGradient
       id="linearGradient2509">
      <stop
         id="stop2511"
         style="stop-color:#b3b3b3;stop-opacity:1"
         offset="0" />
      <stop
         id="stop2513"
         style="stop-color:#dadada;stop-opacity:1"
         offset="1" />
    </linearGradient>
    <linearGradient
       inkscape:collect="always"
       xlink:href="#linearGradient2793"
       id="linearGradient3141"
       gradientUnits="userSpaceOnUse"
       gradientTransform="matrix(0.4578345,0,0,0.432286,-31.591968,18.911518)"
       spreadMethod="reflect"
       x1="103.95014"
       y1="-7.6656942"
       x2="89.423676"
       y2="-7.6656942" />
    <linearGradient
       id="linearGradient2793">
      <stop
         id="stop2795"
         style="stop-color:#868688;stop-opacity:1"
         offset="0" />
      <stop
         id="stop2797"
         style="stop-color:#d9d9da;stop-opacity:1"
         offset="1" />
    </linearGradient>
    <linearGradient
       inkscape:collect="always"
       xlink:href="#linearGradient3858"
       id="linearGradient3143"
       gradientUnits="userSpaceOnUse"
       gradientTransform="translate(-78.157465,-9.546111)"
       x1="89.01844"
       y1="22.536863"
       x2="89.01844"
       y2="27.54611" />
    <linearGradient
       id="linearGradient3858">
      <stop
         id="stop3860"
         style="stop-color:#a0a0a0;stop-opacity:1"
         offset="0" />
      <stop
         id="stop3862"
         style="stop-color:#4a4a4a;stop-opacity:1"
         offset="1" />
    </linearGradient>
    <linearGradient
       inkscape:collect="always"
       xlink:href="#linearGradient2793"
       id="linearGradient3147"
       gradientUnits="userSpaceOnUse"
       gradientTransform="matrix(0.4578345,0,0,0.432286,-31.591968,24.911518)"
       spreadMethod="reflect"
       x1="103.95014"
       y1="-7.6656942"
       x2="89.423676"
       y2="-7.6656942" />
    <linearGradient
       inkscape:collect="always"
       xlink:href="#linearGradient3858"
       id="linearGradient3149"
       gradientUnits="userSpaceOnUse"
       gradientTransform="translate(-78.157465,-3.546111)"
       x1="89.01844"
       y1="22.536863"
       x2="89.01844"
       y2="27.54611" />
    <linearGradient
       inkscape:collect="always"
       xlink:href="#linearGradient2793"
       id="linearGradient3153"
       gradientUnits="userSpaceOnUse"
       gradientTransform="matrix(0.4578345,0,0,0.432286,-31.591968,30.911518)"
       spreadMethod="reflect"
       x1="103.95014"
       y1="-7.6656942"
       x2="89.423676"
       y2="-7.6656942" />
    <linearGradient
       inkscape:collect="always"
       xlink:href="#linearGradient3858"
       id="linearGradient3155"
       gradientUnits="userSpaceOnUse"
       gradientTransform="translate(-78.157465,2.453889)"
       x1="89.01844"
       y1="22.536863"
       x2="89.01844"
       y2="27.54611" />
    <linearGradient
       id="linearGradient23419">
      <stop
         id="stop23421"
         style="stop-color:#000000;stop-opacity:1"
         offset="0" />
      <stop
         id="stop23423"
         style="stop-color:#000000;stop-opacity:0"
         offset="1" />
    </linearGradient>
    <linearGradient
       inkscape:collect="always"
       xlink:href="#linearGradient3125"
       id="linearGradient3098"
       gradientUnits="userSpaceOnUse"
       x1="21.381216"
       y1="5.0524864"
       x2="21.381216"
       y2="44.137077"
       gradientTransform="matrix(0.59999998,0,0,0.60526317,1.6000001,2.1710523)" />
    <linearGradient
       id="linearGradient3125">
      <stop
         offset="0"
         style="stop-color:#ffffff;stop-opacity:1;"
         id="stop3127" />
      <stop
         id="stop3129"
         style="stop-color:#ffffff;stop-opacity:0.23529412;"
         offset="0.08125819" />
      <stop
         offset="0.92327863"
         style="stop-color:#ffffff;stop-opacity:0.15686275;"
         id="stop3131" />
      <stop
         offset="1"
         style="stop-color:#ffffff;stop-opacity:0.39215687;"
         id="stop3133" />
    </linearGradient>
    <radialGradient
       r="22.627417"
       fy="41.63604"
       fx="23.334524"
       cy="41.63604"
       cx="23.334524"
       gradientTransform="matrix(0.5745243,0,0,0.2209368,2.59375,17.801069)"
       gradientUnits="userSpaceOnUse"
       id="radialGradient3232"
       xlink:href="#linearGradient23419"
       inkscape:collect="always" />
  </defs>
  <sodipodi:namedview
     id="base"
     pagecolor="#ffffff"
     bordercolor="#666666"
     borderopacity="1.0"
     inkscape:pageopacity="0.0"
     inkscape:pageshadow="2"
     inkscape:zoom="11.197802"
     inkscape:cx="16"
     inkscape:cy="16"
     inkscape:current-layer="layer1"
     showgrid="true"
     inkscape:grid-bbox="true"
     inkscape:document-units="px"
     inkscape:window-width="447"
     inkscape:window-height="446"
     inkscape:window-x="415"
     inkscape:window-y="167"
     inkscape:window-maximized="0" />
  <metadata
     id="metadata3239">
    <rdf:RDF>
      <cc:Work
         rdf:about="">
        <dc:format>image/svg+xml</dc:format>
        <dc:type
           rdf:resource="http://purl.org/dc/dcmitype/StillImage" />
        <dc:title></dc:title>
      </cc:Work>
    </rdf:RDF>
  </metadata>
  <g
     id="layer1"
     inkscape:label="Layer 1"
     inkscape:groupmode="layer">
    <path
       inkscape:connector-curvature="0"
       style="opacity:0.3;fill:url(#radialGradient3232);fill-opacity:1;fill-rule:evenodd;stroke:none;stroke-width:2;marker:none;visibility:visible;display:inline;overflow:visible"
       id="path23417"
       d="m 29,27 c 0.0011,2.761299 -5.819514,5 -13,5 C 8.819514,32 2.998891,29.761299 3,27 2.99889,24.238701 8.819514,22 16,22 c 7.180486,0 13.00111,2.238701 13,5 z" />
    <path
       inkscape:connector-curvature="0"
       style="fill:url(#linearGradient3153);fill-opacity:1;stroke:url(#linearGradient3155);stroke-width:1;stroke-miterlimit:4;stroke-opacity:1;stroke-dasharray:none"
       id="path4834"
       d="m 27.490168,25.06775 c 0,2.446601 -5.148729,4.43225 -11.492687,4.43225 -6.343968,0 -11.492695,-1.985649 -11.492695,-4.43225 0.11446,-5.469422 -1.40472,-4.33998 11.492695,-4.43225 13.192787,-0.0952 11.330827,-1.126702 11.492687,4.43225 z" />
    <path
       inkscape:connector-curvature="0"
       style="fill:#868688;fill-opacity:1;stroke:#d8d8d8;stroke-width:1;stroke-miterlimit:4;stroke-opacity:1;stroke-dasharray:none"
       id="path4838"
       d="m 27.499999,21 c 0,2.485282 -5.148726,4.5 -11.499999,4.5 -6.351275,0 -11.500001,-2.014718 -11.500001,-4.5 0,-2.485281 5.148726,-4.5 11.500001,-4.5 6.351273,0 11.499999,2.014719 11.499999,4.5 l 0,0 z" />
    <path
       inkscape:connector-curvature="0"
       style="fill:url(#linearGradient3147);fill-opacity:1;stroke:url(#linearGradient3149);stroke-width:1;stroke-miterlimit:4;stroke-opacity:1;stroke-dasharray:none"
       id="path3866"
       d="m 27.490168,19.06775 c 0,2.446601 -5.148729,4.43225 -11.492687,4.43225 -6.343968,0 -11.492695,-1.985649 -11.492695,-4.43225 0.11446,-5.469422 -1.40472,-4.33998 11.492695,-4.43225 13.192787,-0.0952 11.330827,-1.126702 11.492687,4.43225 z" />
    <path
       inkscape:connector-curvature="0"
       style="fill:#868688;fill-opacity:1;stroke:#d8d8d8;stroke-width:1;stroke-miterlimit:4;stroke-opacity:1;stroke-dasharray:none"
       id="path3868"
       d="m 27.499999,15 c 0,2.485282 -5.148726,4.5 -11.499999,4.5 -6.351275,0 -11.500001,-2.014718 -11.500001,-4.5 0,-2.485281 5.148726,-4.5 11.500001,-4.5 6.351273,0 11.499999,2.014719 11.499999,4.5 l 0,0 z" />
    <path
       inkscape:connector-curvature="0"
       style="fill:url(#linearGradient3141);fill-opacity:1;stroke:url(#linearGradient3143);stroke-width:1;stroke-miterlimit:4;stroke-opacity:1;stroke-dasharray:none"
       id="path3878"
       d="M 27.490168,13.06775 C 27.490168,15.514351 22.341439,17.5 15.997481,17.5 9.653513,17.5 4.504786,15.514351 4.504786,13.06775 4.619246,7.598328 3.100066,8.72777 15.997481,8.6355 29.190268,8.540298 27.328308,7.508798 27.490168,13.06775 z" />
    <path
       inkscape:connector-curvature="0"
       style="fill:url(#linearGradient3136);fill-opacity:1;stroke:url(#linearGradient3138);stroke-width:1;stroke-miterlimit:4;stroke-opacity:1;stroke-dasharray:none"
       id="path3880"
       d="m 27.499999,9 c 0,2.485282 -5.148726,4.5 -11.499999,4.5 C 9.648725,13.5 4.499999,11.485282 4.499999,9 4.499999,6.514719 9.648725,4.5 16,4.5 22.351273,4.5 27.499999,6.514719 27.499999,9 l 0,0 z" />
    <rect
       style="opacity:0.5;color:#000000;fill:none;stroke:url(#linearGradient3098);stroke-width:0.99999994;stroke-opacity:1;marker:none;visibility:visible;display:inline;overflow:visible;enable-background:accumulate"
       id="rect3145"
       width="21"
       height="23"
       x="5.5"
       y="5.499999"
       rx="17.5"
       ry="4" />
  </g>
</svg>

<?xml version="1.0" encoding="UTF-8" standalone="no"?>
<!-- Created with Inkscape (http://www.inkscape.org/) -->
<svg
   xmlns:svg="http://www.w3.org/2000/svg"
   xmlns="http://www.w3.org/2000/svg"
   xmlns:xlink="http://www.w3.org/1999/xlink"
   version="1.0"
   width="32"
   height="32"
   id="svg2510">
  <defs
     id="defs2512">
    <linearGradient
       id="linearGradient23419">
      <stop
         id="stop23421"
         style="stop-color:#000000;stop-opacity:1"
         offset="0" />
      <stop
         id="stop23423"
         style="stop-color:#000000;stop-opacity:0"
         offset="1" />
    </linearGradient>
    <linearGradient
       id="linearGradient3858">
      <stop
         id="stop3860"
         style="stop-color:#a0a0a0;stop-opacity:1"
         offset="0" />
      <stop
         id="stop3862"
         style="stop-color:#4a4a4a;stop-opacity:1"
         offset="1" />
    </linearGradient>
    <linearGradient
       id="linearGradient2793">
      <stop
         id="stop2795"
         style="stop-color:#868688;stop-opacity:1"
         offset="0" />
      <stop
         id="stop2797"
         style="stop-color:#d9d9da;stop-opacity:1"
         offset="1" />
    </linearGradient>
    <linearGradient
       id="linearGradient2509">
      <stop
         id="stop2511"
         style="stop-color:#b3b3b3;stop-opacity:1"
         offset="0" />
      <stop
         id="stop2513"
         style="stop-color:#dadada;stop-opacity:1"
         offset="1" />
    </linearGradient>
    <linearGradient
       id="linearGradient3844">
      <stop
         id="stop3846"
         style="stop-color:#a5a6a8;stop-opacity:1"
         offset="0" />
      <stop
         id="stop3848"
         style="stop-color:#e8e8e8;stop-opacity:1"
         offset="1" />
    </linearGradient>
    <linearGradient
       x1="102.30806"
       y1="-2.3925467"
       x2="102.30806"
       y2="-24.582239"
       id="linearGradient2581"
       xlink:href="#linearGradient3844"
       gradientUnits="userSpaceOnUse"
       gradientTransform="matrix(0.4581255,0,0,0.4388939,-31.619713,14.933095)"
       spreadMethod="reflect" />
    <linearGradient
       x1="109.95628"
       y1="-24.91135"
       x2="109.95628"
       y2="-2.3757858"
       id="linearGradient2583"
       xlink:href="#linearGradient2509"
       gradientUnits="userSpaceOnUse"
       gradientTransform="matrix(0.4581255,0,0,0.4388939,-31.619713,14.933095)" />
    <linearGradient
       x1="103.95014"
       y1="-7.6656942"
       x2="89.423676"
       y2="-7.6656942"
       id="linearGradient2586"
       xlink:href="#linearGradient2793"
       gradientUnits="userSpaceOnUse"
       gradientTransform="matrix(0.4578345,0,0,0.432286,-31.591968,18.911518)"
       spreadMethod="reflect" />
    <linearGradient
       x1="89.01844"
       y1="22.536863"
       x2="89.01844"
       y2="27.54611"
       id="linearGradient2588"
       xlink:href="#linearGradient3858"
       gradientUnits="userSpaceOnUse"
       gradientTransform="translate(-78.157465,-9.5461107)" />
    <linearGradient
       x1="103.95014"
       y1="-7.6656942"
       x2="89.423676"
       y2="-7.6656942"
       id="linearGradient2592"
       xlink:href="#linearGradient2793"
       gradientUnits="userSpaceOnUse"
       gradientTransform="matrix(0.4578345,0,0,0.432286,-31.591968,24.911518)"
       spreadMethod="reflect" />
    <linearGradient
       x1="89.01844"
       y1="22.536863"
       x2="89.01844"
       y2="27.54611"
       id="linearGradient2594"
       xlink:href="#linearGradient3858"
       gradientUnits="userSpaceOnUse"
       gradientTransform="translate(-78.157465,-3.546111)" />
    <linearGradient
       x1="103.95014"
       y1="-7.6656942"
       x2="89.423676"
       y2="-7.6656942"
       id="linearGradient2598"
       xlink:href="#linearGradient2793"
       gradientUnits="userSpaceOnUse"
       gradientTransform="matrix(0.4578345,0,0,0.432286,-31.591968,30.911518)"
       spreadMethod="reflect" />
    <linearGradient
       x1="89.01844"
       y1="22.536863"
       x2="89.01844"
       y2="27.54611"
       id="linearGradient2600"
       xlink:href="#linearGradient3858"
       gradientUnits="userSpaceOnUse"
       gradientTransform="translate(-78.157465,2.453889)" />
    <radialGradient
       cx="23.334524"
       cy="41.63604"
       r="22.627417"
       fx="23.334524"
       fy="41.63604"
       id="radialGradient2603"
       xlink:href="#linearGradient23419"
       gradientUnits="userSpaceOnUse"
       gradientTransform="matrix(0.5745243,0,0,0.2209368,2.59375,17.801069)" />
  </defs>
  <g
     id="layer1">
    <path
       d="M 29,27 C 29.00111,29.761299 23.180486,32 16,32 C 8.819514,32 2.998891,29.761299 3,27 C 2.998891,24.238701 8.819514,22 16,22 C 23.180486,22 29.00111,24.238701 29,27 z"
       id="path23417"
       style="opacity:0.3;fill:url(#radialGradient2603);fill-opacity:1;fill-rule:evenodd;stroke:none;stroke-width:2;stroke-linecap:butt;stroke-linejoin:miter;marker:none;marker-start:none;marker-mid:none;marker-end:none;stroke-miterlimit:4;stroke-dasharray:none;stroke-dashoffset:0;stroke-opacity:1;visibility:visible;display:inline;overflow:visible" />
    <path
       d="M 27.490168,25.06775 C 27.490168,27.514351 22.341439,29.5 15.997481,29.5 C 9.653513,29.5 4.504786,27.514351 4.504786,25.06775 C 4.619246,19.598328 3.100066,20.72777 15.997481,20.6355 C 29.190268,20.540298 27.328308,19.508798 27.490168,25.06775 z"
       id="path4834"
       style="fill:url(#linearGradient2598);fill-opacity:1;stroke:url(#linearGradient2600);stroke-width:1;stroke-miterlimit:4;stroke-dasharray:none;stroke-opacity:1" />
    <path
       d="M 27.499999,21 C 27.499999,23.485282 22.351273,25.5 16,25.5 C 9.648725,25.5 4.499999,23.485282 4.499999,21 C 4.499999,18.514719 9.648725,16.5 16,16.5 C 22.351273,16.5 27.499999,18.514719 27.499999,21 L 27.499999,21 z"
       id="path4838"
       style="fill:#868688;fill-opacity:1;stroke:#d8d8d8;stroke-width:1;stroke-miterlimit:4;stroke-dasharray:none;stroke-opacity:1" />
    <path
       d="M 27.490168,19.06775 C 27.490168,21.514351 22.341439,23.5 15.997481,23.5 C 9.653513,23.5 4.504786,21.514351 4.504786,19.06775 C 4.619246,13.598328 3.100066,14.72777 15.997481,14.6355 C 29.190268,14.540298 27.328308,13.508798 27.490168,19.06775 z"
       id="path3866"
       style="fill:url(#linearGradient2592);fill-opacity:1;stroke:url(#linearGradient2594);stroke-width:1;stroke-miterlimit:4;stroke-dasharray:none;stroke-opacity:1" />
    <path
       d="M 27.499999,15 C 27.499999,17.485282 22.351273,19.5 16,19.5 C 9.648725,19.5 4.499999,17.485282 4.499999,15 C 4.499999,12.514719 9.648725,10.5 16,10.5 C 22.351273,10.5 27.499999,12.514719 27.499999,15 L 27.499999,15 z"
       id="path3868"
       style="fill:#868688;fill-opacity:1;stroke:#d8d8d8;stroke-width:1;stroke-miterlimit:4;stroke-dasharray:none;stroke-opacity:1" />
    <path
       d="M 27.490168,13.06775 C 27.490168,15.514351 22.341439,17.5 15.997481,17.5 C 9.653513,17.5 4.504786,15.514351 4.504786,13.06775 C 4.619246,7.598328 3.100066,8.72777 15.997481,8.6355 C 29.190268,8.540298 27.328308,7.508798 27.490168,13.06775 z"
       id="path3878"
       style="fill:url(#linearGradient2586);fill-opacity:1;stroke:url(#linearGradient2588);stroke-width:1;stroke-miterlimit:4;stroke-dasharray:none;stroke-opacity:1" />
    <path
       d="M 27.499999,9 C 27.499999,11.485282 22.351273,13.5 16,13.5 C 9.648725,13.5 4.499999,11.485282 4.499999,9 C 4.499999,6.514719 9.648725,4.5 16,4.5 C 22.351273,4.5 27.499999,6.514719 27.499999,9 L 27.499999,9 z"
       id="path3880"
       style="fill:url(#linearGradient2581);fill-opacity:1;stroke:url(#linearGradient2583);stroke-width:1;stroke-miterlimit:4;stroke-dasharray:none;stroke-opacity:1" />
  </g>
</svg>
